svg/u1f949.svg

<svg viewBox="0 0 128 128" xmlns="http://www.w3.org/2000/svg">
  <path d="M69.09,4.24c-1.08,0.96-9.48,17.63-9.48,17.63l-6.25,25.21l24.32-2.23c0,0,20.23-37.62,20.64-38.49 c0.73-1.58,1.12-2.23-1.67-2.23C93.86,4.12,70.1,3.34,69.09,4.24z" fill="#176CC7"/>
  <path d="M81.68,43.29c-1.21-0.65-36.85-1.21-37.69,0c-0.76,1.1-0.33,6.87-0.04,7.56 c0.52,1.2,12.03,6.43,12.03,6.43l-0.22,2.38c0,0,0.94,0.24,7.63,0.24s8.01-0.34,8.01-0.34l0.02-2.15c0,0,10.36-5.04,10.88-5.74 C82.74,51.09,82.89,43.94,81.68,43.29z M71.07,52.41c0,0,0.33-1.47-0.36-1.81c-0.69-0.35-12.53-0.19-13.47-0.14 c-0.94,0.05-0.94,1.73-0.94,1.73l-7.46-3.84l-0.14-1.43l28.3,0.2l-0.1,1.35L71.07,52.41z" fill="#F79429"/>
  <path d="M59.26,51.89c-0.94,0-1.48,0.98-1.48,2.67c0,1.58,0.54,2.91,1.73,2.81c0.98-0.08,1.32-1.58,1.23-2.91 C60.65,52.87,60.45,51.89,59.26,51.89z" fill="#FDFFFF"/>
  <path d="M29.31,92.09c0,23.96,21.71,33.93,36.12,33.5c16.79-0.5,34.85-13.24,33.36-36.1 c-1.4-21.45-19.46-31.29-35.24-31.18C45.21,58.45,29.31,71.16,29.31,92.09z" fill="#F79429"/>
  <path d="M64.67,121.97c-0.25,0-0.51,0-0.76-0.01c-7.5-0.25-14.91-3.41-20.33-8.66 c-5.8-5.62-8.98-13.22-8.94-21.39c0.09-19.95,17.53-29.2,29.36-29.2c0.03,0,0.07,0,0.1,0h0c16.03,0.07,29.19,12.53,29.56,29.42 c0.16,7.52-2.24,15-8.28,20.94C79.74,118.59,71.58,121.97,64.67,121.97z M63.98,66.03c-10.61,0-26.3,8.68-26.34,25.88 c-0.03,12.86,9.93,26.08,26.52,26.64c6.32,0.2,13.45-2.14,18.7-7.3c5.46-5.37,7.91-12.37,7.8-19.07 c-0.24-14.53-12.12-26.09-26.54-26.15C64.09,66.01,64.01,66.03,63.98,66.03z" fill="#D25116"/>
  <path d="M58.09,61.47c-0.69-0.95-7.76-0.68-15.37,5.87c-7.56,6.51-8.69,13.71-7.33,14.09 c1.55,0.43,3.44-6.53,9.97-12.38C51.36,63.7,59.46,63.36,58.09,61.47z" fill="#FEFFFA"/>
  <path d="M88.48,87.64c-2.41,0.34,0.09,7.56-5.5,15.64c-4.85,7.01-10.35,9.55-9.71,11.09 c0.86,2.06,9.67-3.07,13.75-11.43C90.71,95.37,90.27,87.38,88.48,87.64z" fill="#FEFFFA"/>
  <path d="M25.51,3.72C24.88,4.3,48.97,47.2,48.97,47.2s4.04,0.52,13.06,0.6s13.49-0.52,13.49-0.52 S56.79,4.15,55.67,3.72C55.12,3.5,47.7,3.42,40.45,3.34C33.19,3.25,26.11,3.16,25.51,3.72z" fill="#2E9DF4"/>
  <path d="M74.95,83.71c-1.16-10.05-12.86-10.89-17.71-7.03c-4.72,3.76-4.27,9-0.96,9.61 c2.61,0.48,3.29-1.59,4.05-2.54c1.72-2.13,4.46-2.33,6.25-0.62c2.03,1.95,0.78,6.61-2.27,6.8c-2.27,0.14-3.42,0.02-3.71,0.41 c-0.41,0.55-0.35,4.88,0.07,5.36c0.48,0.55,2.4,0.21,4.05,0.27c2.27,0.09,4.68,3.45,3.09,5.97c-1.65,2.61-6.04,1.44-7.62-0.14 c-2.09-2.09-4.18-0.89-4.88-0.07c-1.1,1.3-2.27,4.26,1.79,7.14c4.05,2.88,16.34,3.43,18.82-5.49c2.16-7.79-2.88-10.99-2.88-10.99 S75.61,89.44,74.95,83.71z" fill="#D25116"/>
</svg>

<svg viewBox="0 0 128 128" xmlns="http://www.w3.org/2000/svg">
  <defs/>
  <path d="M69.09,4.24 C68.01,5.2 59.61,21.87 59.61,21.87 L53.36,47.08 L77.68,44.85 C77.68,44.85 97.91,7.23 98.32,6.36 C99.05,4.78 99.44,4.13 96.65,4.13 C93.86,4.12 70.1,3.34 69.09,4.24 Z" fill="#176CC7"/>
  <path d="M81.68,43.29 C80.47,42.64 44.83,42.08 43.99,43.29 C43.23,44.39 43.66,50.16 43.95,50.85 C44.47,52.05 55.98,57.28 55.98,57.28 L55.76,59.66 C55.76,59.66 56.7,59.9 63.39,59.9 C70.08,59.9 71.4,59.56 71.4,59.56 L71.42,57.41 C71.42,57.41 81.78,52.37 82.3,51.67 C82.74,51.09 82.89,43.94 81.68,43.29 Z M71.07,52.41 C71.07,52.41 71.4,50.94 70.71,50.6 C70.02,50.25 58.18,50.41 57.24,50.46 C56.3,50.51 56.3,52.19 56.3,52.19 L48.84,48.35 L48.7,46.92 L77,47.12 L76.9,48.47 L71.07,52.41 Z" fill="#F79429"/>
  <path d="M59.26,51.89 C58.32,51.89 57.78,52.87 57.78,54.56 C57.78,56.14 58.32,57.47 59.51,57.37 C60.49,57.29 60.83,55.79 60.74,54.46 C60.65,52.87 60.45,51.89 59.26,51.89 Z" fill="#FDFFFF"/>
  <path d="M29.31,92.09 C29.31,116.05 51.02,126.02 65.43,125.59 C82.22,125.09 100.28,112.35 98.79,89.49 C97.39,68.04 79.33,58.2 63.55,58.31 C45.21,58.45 29.31,71.16 29.31,92.09 Z" fill="#F79429"/>
  <path d="M64.67,121.97 C64.42,121.97 64.16,121.97 63.91,121.96 C56.41,121.71 49,118.55 43.58,113.3 C37.78,107.68 34.6,100.08 34.64,91.91 C34.73,71.96 52.17,62.71 64,62.71 C64.03,62.71 64.07,62.71 64.1,62.71 L64.1,62.71 C80.13,62.78 93.29,75.24 93.66,92.13 C93.82,99.65 91.42,107.13 85.38,113.07 C79.74,118.59 71.58,121.97 64.67,121.97 Z M63.98,66.03 C53.37,66.03 37.68,74.71 37.64,91.91 C37.61,104.77 47.57,117.99 64.16,118.55 C70.48,118.75 77.61,116.41 82.86,111.25 C88.32,105.88 90.77,98.88 90.66,92.18 C90.42,77.65 78.54,66.09 64.12,66.03 C64.09,66.01 64.01,66.03 63.98,66.03 Z" fill="#D25116"/>
  <path d="M58.09,61.47 C57.4,60.52 50.33,60.79 42.72,67.34 C35.16,73.85 34.03,81.05 35.39,81.43 C36.94,81.86 38.83,74.9 45.36,69.05 C51.36,63.7 59.46,63.36 58.09,61.47 Z" fill="#FEFFFA"/>
  <path d="M88.48,87.64 C86.07,87.98 88.57,95.2 82.98,103.28 C78.13,110.29 72.63,112.83 73.27,114.37 C74.13,116.43 82.94,111.3 87.02,102.94 C90.71,95.37 90.27,87.38 88.48,87.64 Z" fill="#FEFFFA"/>
  <path d="M25.51,3.72 C24.88,4.3 48.97,47.2 48.97,47.2 C48.97,47.2 53.01,47.72 62.03,47.8 C71.05,47.88 75.52,47.28 75.52,47.28 C75.52,47.28 56.79,4.15 55.67,3.72 C55.12,3.5 47.7,3.42 40.45,3.34 C33.19,3.25 26.11,3.16 25.51,3.72 Z" fill="#2E9DF4"/>
  <path d="M74.95,83.71 C73.79,73.66 62.09,72.82 57.24,76.68 C52.52,80.44 52.97,85.68 56.28,86.29 C58.89,86.77 59.57,84.7 60.33,83.75 C62.05,81.62 64.79,81.42 66.58,83.13 C68.61,85.08 67.36,89.74 64.31,89.93 C62.04,90.07 60.89,89.95 60.6,90.34 C60.19,90.89 60.25,95.22 60.67,95.7 C61.15,96.25 63.07,95.91 64.72,95.97 C66.99,96.06 69.4,99.42 67.81,101.94 C66.16,104.55 61.77,103.38 60.19,101.8 C58.1,99.71 56.01,100.91 55.31,101.73 C54.21,103.03 53.04,105.99 57.1,108.87 C61.15,111.75 73.44,112.3 75.92,103.38 C78.08,95.59 73.04,92.39 73.04,92.39 C73.04,92.39 75.61,89.44 74.95,83.71 Z" fill="#D25116"/>
</svg>
